images/avatar/poppetje-1.svg

<svg height="293" viewBox="0 0 201 293" width="201" xmlns="http://www.w3.org/2000/svg" xmlns:xlink="http://www.w3.org/1999/xlink"><linearGradient id="a" x1="50.000093%" x2="50.000093%" y1="100%" y2="-.000169%"><stop offset="0" stop-color="#fdddc8"/><stop offset="1" stop-color="#e9cdba"/></linearGradient><mask id="b" fill="#fff"><path d="m108.356867.53575652h-.033819-16.9076099v25.93721738c0 9.8537304-10.6172667 14.5473131-24.5468857 19.1691652-13.9372762 4.6174087-15.7003334 13.1920522-15.7003334 13.1920522l-51.168219 87.1658087h24.1455238l35.5348857-49.6323826 9.4106286 49.6323826h77.5055999c4.90121-39.69867.188876-54.5697217.188876-54.5697217l31.196476 54.5697217h22.57262l-37.5334-86.5583217s-1.992134-8.6584348-15.930048-13.2758435c-13.928981-4.6212174-21.826686-9.8391305-21.826686-19.6928609v-25.93721738z" fill="#fff" fill-rule="evenodd"/></mask><g fill="none" fill-rule="evenodd"><path d="m108.356867.53575652h-.033819-16.9076099v25.93721738c0 9.8537304-10.6172667 14.5473131-24.5468857 19.1691652-13.9372762 4.6174087-15.7003334 13.1920522-15.7003334 13.1920522l-51.168219 87.1658087h24.1455238l35.5348857-49.6323826 9.4106286 49.6323826h77.5055999c4.90121-39.69867.188876-54.5697217.188876-54.5697217l31.196476 54.5697217h22.57262l-37.5334-86.5583217s-1.992134-8.6584348-15.930048-13.2758435c-13.928981-4.6212174-21.826686-9.8391305-21.826686-19.6928609v-25.93721738z" fill="url(#a)" mask="url(#b)" transform="translate(0 147)"/><g transform="translate(28)"><path d="m141.284304 72.5654223c0 48.1174647-17.176583 87.4061587-61.3391825 87.4061587-44.1581215 0-60.4922511-39.759655-60.4922511-87.8771196 0-48.1263623 41.0959919-57.818243 61.2374737-57.818243 20.1414819 0 60.5939599 10.1628417 60.5939599 58.2892039" fill="#fedec8"/><path d="m66.1126372 103.381459c0 6.608072-5.4577166 11.969145-12.1807125 11.969145-6.7274737 0-12.1743158-5.361073-12.1743158-11.969145 0-6.6087072 5.4468421-11.9672386 12.1743158-11.9672386 6.7229959 0 12.1807125 5.3585314 12.1807125 11.9672386" fill="#6dcff6"/><path d="m62.9798874 103.37898c0 4.611731-3.7683319 8.357809-8.4079028 8.357809-4.6434089 0-8.4066235-3.746078-8.4066235-8.357809 0-4.6041039 3.7632146-8.3514531 8.4066235-8.3514531 4.6395709 0 8.4079028 3.7473492 8.4079028 8.3514531" fill="#2a1d01"/><path d="m51.02997 99.0503978c0 1.3328002-1.0912874 2.4228112-2.4294898 2.4228112-1.3433199 0-2.4346073-1.090011-2.4346073-2.4228112 0-1.3321648 1.0912874-2.4107353 2.4346073-2.4107353 1.3382024 0 2.4294898 1.0785705 2.4294898 2.4107353" fill="#fff"/><path d="m53.5602729 129.876985c8.3330607 5.019135 17.2539838 8.118833 26.2945263 8.003794 9.0955546 0 17.8098623-3.496297 26.4749148-8.003794-3.183028 3.727646-7.1630929 6.819082-11.6772873 9.045501-4.5052388 2.262647-9.6060162 3.496297-14.7522105 3.57638-5.1417166.009533-10.2789555-1.130688-14.8148988-3.357742-4.5321053-2.191462-8.624753-5.282263-11.5250445-9.264139" fill="#c42c76"/><path d="m95.9075992 103.381459c0 6.608072 5.4577168 11.969145 12.1807128 11.969145 6.727473 0 12.174316-5.361073 12.174316-11.969145 0-6.6087072-5.446843-11.9672386-12.174316-11.9672386-6.722996 0-12.1807128 5.3585314-12.1807128 11.9672386" fill="#6dcff6"/><path d="m99.040349 103.37898c0 4.611731 3.768332 8.357809 8.407263 8.357809 4.644049 0 8.407263-3.746078 8.407263-8.357809 0-4.6041039-3.763214-8.3514531-8.407263-8.3514531-4.638931 0-8.407263 3.7473492-8.407263 8.3514531" fill="#2a1d01"/><path d="m99.516396 99.0503978c0 1.3328002 1.091287 2.4228112 2.42949 2.4228112 1.34332 0 2.434607-1.090011 2.434607-2.4228112 0-1.3321648-1.091287-2.4107353-2.434607-2.4107353-1.338203 0-2.42949 1.0785705-2.42949 2.4107353" fill="#fff"/><path d="m22.2970623 102.710546s7.8904049-46.8615681 31.6031984-54.0098783c28.1271984-8.4779328 52.1579113-1.5978352 59.7310363 1.5698698 12.00928 5.0242191 24.966559 51.1834775 24.966559 51.1834775s6.32064-38.9365859 2.52864-50.8695035c-3.79264-11.9316464-13.273919-23.55059-13.273919-23.55059s-3.16-13.1881779-15.16928-16.3285532c-12.009919-3.13973967-20.2265585-9.7338286-20.2265585-9.7338286v3.13973969l-20.8585587-3.76768763 1.2646396 3.76768763-25.2831983 2.19781779 3.1606396 3.76832322-17.065919 5.0242191 3.792 1.8838438-17.0652794 10.0484382h6.9526397l-8.1110931 15.2874815-2.0021862 2.611577 3.792 1.2558959-5.688 15.6999697h5.0566396l-3.6647044 15.7787809-.1279352.5504078 3.16-.627948z" fill="#edc866"/><path d="m114.579361 50.5847022 11.377279-18.8403449-12.641919 14.4447093s-45.5084773-11.3043341-63.207036 4.3956356c0 0 26.8631984-14.1300998 64.471676 0" fill="#c6a956"/><path d="m112.050977 48.7009219s11.37728 7.2220369 19.909919 31.0866009c0 0-4.424639-21.3527723-18.645919-33.5983926z" fill="#c6a956"/><path d="m98.46157 44.9327894-18.013919-8.1645944.948 2.8264013-16.433919-4.0816616 5.0566397 5.0235835-11.3772794-1.2558959 2.528 1.5698699-13.5892793 2.1978178 6.9526396.9425575s-10.1132793 1.8838438-12.9572793 5.338193c-2.844 3.4543493-12.0092794 27.0043037-12.0092794 27.0043037s14.2212794-25.4344338 21.1739191-27.3182776c6.9532793-1.8844794 47.721757-4.0822972 47.721757-4.0822972" fill="#c6a956"/><g fill="#efe08a"><path d="m113.947169 20.7542514-8.532639-5.6528026 5.056 5.0248547-6.514462-1.2533536-3.282178-.6311258.316 3.1403752 4.74064.941922-12.3259195.9419219 7.9012795 2.1978178-2.8440001 4.3962711h9.4806401z"/><path d="m127.536577 40.5365182c-.632.9419219-4.42464 5.0242191-3.16 10.0484382 1.264 5.0242191 5.056 13.5027874 5.056 13.5027874l-1.264-12.5608655 3.160639 2.1984534z"/><path d="m106.678338 38.0246629c-8.84864-.313974-24.9665591-6.9080629-24.9665591-6.9080629l13.5892794 2.8257657-1.264-3.1397397 7.9006397.9419219s-11.3772794-5.652167-10.1132794-5.338193c1.2646397.313974 13.9059194 2.1984533 13.9059194 2.1984533z"/><path d="m36.8346615 47.7587458c-1.896 6.2801149-7.9012793 25.7490434-7.9012793 25.7490434l2.2126397-11.6189436s-.948-.9412864-.948-2.1978178c0-1.2558959 6.6366396-11.932282 6.6366396-11.932282"/></g><path d="m32.7261498 252.492655s2.5318381 23.477499 4.4988421 40.507091h80.6510041c1.931182-18.698612 5.868389-39.565169 5.868389-39.565169l8.532639 16.015214 25.599199-21.666746-19.910559-48.985659-18.013919-9.420491s-8.53264 28.260836-36.9758381 29.203393c-28.4431984.941286-43.6131174-29.203393-43.6131174-29.203393l-13.2732794 4.70961-25.59919836 43.333492 18.96255866 32.971081z" fill="#542f82"/><path d="m56.5680939 293h42.1898381c7.016607-5.299423 12.419312-13.204067 12.029109-21.352772-.632639-13.188814-5.688639-34.54095-12.0092791-35.796846-6.3212793-1.256532-20.2265587-3.768323-20.2265587-3.768323s-8.2166396-1.88448-18.961919 6.908062c-10.7452793 8.792543-18.3305587 30.145315-10.1132793 45.217337 2.0002672 3.668538 4.4137651 6.55087 7.092089 8.792542" fill="#c42c76"/><path d="m84.0386008 254.195805c-1.4706154 0-2.662332-1.184712-2.662332-2.645263 0-1.461186 1.1917166-2.645898 2.662332-2.645898s2.662332 1.184712 2.662332 2.645898c0 1.460551-1.1917166 2.645263-2.662332 2.645263m9.0520567 6.877555c-2.3962267-5.819323-4.2596032-11.374883-1.0644211-11.639282 0 0-4.2602429-6.613156-12.5139838-1.058232-8.2531012 5.554924-10.3832226 32.537618-21.0331903 31.214987 0 0 14.9012551 2.241037 24.760583-.528799 9.6514332-2.711997 12.2472389-12.16808 9.8510122-17.988674" fill="#fff"/></g></g></svg>

<?xml version="1.0" encoding="UTF-8"?>
<svg width="201px" height="293px" viewBox="0 0 201 293" version="1.1" xmlns="http://www.w3.org/2000/svg" xmlns:xlink="http://www.w3.org/1999/xlink">
    <!-- Generator: Sketch 54.1 (76490) - https://sketchapp.com -->
    <title>avatar / poppetje-1</title>
    <desc>Created with Sketch.</desc>
    <defs>
        <path d="M108.356867,0.535756522 L108.323048,0.535756522 L91.4154381,0.535756522 L91.4154381,26.4729739 C91.4154381,36.3267043 80.7981714,41.020287 66.8685524,45.6421391 L66.8685524,45.6421391 C52.9312762,50.2595478 51.168219,58.8341913 51.168219,58.8341913 L51.168219,58.8341913 L0,146 L24.1455238,146 L59.6804095,96.3676174 L69.0910381,146 L146.596638,146 C151.497848,106.30133 146.785514,91.4302783 146.785514,91.4302783 L146.785514,91.4302783 L177.98199,146 L200.55461,146 L163.02121,59.4416783 C163.02121,59.4416783 161.029076,50.7832435 147.091162,46.1658348 L147.091162,46.1658348 C133.162181,41.5446174 125.264476,36.3267043 125.264476,26.4729739 L125.264476,26.4729739 L125.264476,0.535756522 L108.356867,0.535756522 Z" id="path-1"></path>
        <linearGradient x1="50.0000926%" y1="100%" x2="50.0000926%" y2="-0.000169011503%" id="linearGradient-3">
            <stop stop-color="#FDDDC8" offset="0%"></stop>
            <stop stop-color="#E9CDBA" offset="100%"></stop>
        </linearGradient>
    </defs>
    <g id="avatar-/-poppetje-1" stroke="none" stroke-width="1" fill="none" fill-rule="evenodd">
        <g id="Avatar-/-Dame">
            <g id="Group-43">
                <g id="Group-3" transform="translate(0.000000, 147.000000)">
                    <mask id="mask-2" fill="white">
                        <use xlink:href="#path-1"></use>
                    </mask>
                    <g id="Clip-2"></g>
                    <path d="M108.356867,0.535756522 L108.323048,0.535756522 L91.4154381,0.535756522 L91.4154381,26.4729739 C91.4154381,36.3267043 80.7981714,41.020287 66.8685524,45.6421391 L66.8685524,45.6421391 C52.9312762,50.2595478 51.168219,58.8341913 51.168219,58.8341913 L51.168219,58.8341913 L0,146 L24.1455238,146 L59.6804095,96.3676174 L69.0910381,146 L146.596638,146 C151.497848,106.30133 146.785514,91.4302783 146.785514,91.4302783 L146.785514,91.4302783 L177.98199,146 L200.55461,146 L163.02121,59.4416783 C163.02121,59.4416783 161.029076,50.7832435 147.091162,46.1658348 L147.091162,46.1658348 C133.162181,41.5446174 125.264476,36.3267043 125.264476,26.4729739 L125.264476,26.4729739 L125.264476,0.535756522 L108.356867,0.535756522 Z" id="Fill-1" fill="url(#linearGradient-3)" mask="url(#mask-2)"></path>
                </g>
                <g id="Group-42" transform="translate(28.000000, 0.000000)">
                    <path d="M141.284304,72.5654223 C141.284304,120.682887 124.107721,159.971581 79.9451215,159.971581 C35.787,159.971581 19.4528704,120.211926 19.4528704,72.0944614 C19.4528704,23.9680991 60.5488623,14.2762184 80.6903441,14.2762184 C100.831826,14.2762184 141.284304,24.4390601 141.284304,72.5654223" id="Fill-4" fill="#FEDEC8"></path>
                    <path d="M66.1126372,103.381459 C66.1126372,109.989531 60.6549206,115.350604 53.9319247,115.350604 C47.204451,115.350604 41.7576089,109.989531 41.7576089,103.381459 C41.7576089,96.7727518 47.204451,91.4142204 53.9319247,91.4142204 C60.6549206,91.4142204 66.1126372,96.7727518 66.1126372,103.381459" id="Fill-6" fill="#6DCFF6"></path>
                    <path d="M62.9798874,103.37898 C62.9798874,107.990711 59.2115555,111.736789 54.5719846,111.736789 C49.9285757,111.736789 46.1653611,107.990711 46.1653611,103.37898 C46.1653611,98.7748761 49.9285757,95.0275269 54.5719846,95.0275269 C59.2115555,95.0275269 62.9798874,98.7748761 62.9798874,103.37898" id="Fill-8" fill="#2A1D01"></path>
                    <path d="M51.02997,99.0503978 C51.02997,100.383198 49.9386826,101.473209 48.6004802,101.473209 C47.2571603,101.473209 46.1658729,100.383198 46.1658729,99.0503978 C46.1658729,97.718233 47.2571603,96.6396625 48.6004802,96.6396625 C49.9386826,96.6396625 51.02997,97.718233 51.02997,99.0503978" id="Fill-10" fill="#FFFFFF"></path>
                    <path d="M53.5602729,129.876985 C61.8933336,134.89612 70.8142567,137.995818 79.8547992,137.880779 C88.9503538,137.880779 97.6646615,134.384482 106.329714,129.876985 C103.146686,133.604631 99.1666211,136.696067 94.6524267,138.922486 C90.1471879,141.185133 85.0464105,142.418783 79.9002162,142.498866 C74.7584996,142.508399 69.6212607,141.368178 65.0853174,139.141124 C60.5532121,136.949662 56.4605644,133.858861 53.5602729,129.876985" id="Fill-12" fill="#C42C76"></path>
                    <path d="M95.9075992,103.381459 C95.9075992,109.989531 101.365316,115.350604 108.088312,115.350604 C114.815785,115.350604 120.262628,109.989531 120.262628,103.381459 C120.262628,96.7727518 114.815785,91.4142204 108.088312,91.4142204 C101.365316,91.4142204 95.9075992,96.7727518 95.9075992,103.381459" id="Fill-14" fill="#6DCFF6"></path>
                    <path d="M99.040349,103.37898 C99.040349,107.990711 102.808681,111.736789 107.447612,111.736789 C112.091661,111.736789 115.854875,107.990711 115.854875,103.37898 C115.854875,98.7748761 112.091661,95.0275269 107.447612,95.0275269 C102.808681,95.0275269 99.040349,98.7748761 99.040349,103.37898" id="Fill-16" fill="#2A1D01"></path>
                    <path d="M99.516396,99.0503978 C99.516396,100.383198 100.607683,101.473209 101.945886,101.473209 C103.289206,101.473209 104.380493,100.383198 104.380493,99.0503978 C104.380493,97.718233 103.289206,96.6396625 101.945886,96.6396625 C100.607683,96.6396625 99.516396,97.718233 99.516396,99.0503978" id="Fill-18" fill="#FFFFFF"></path>
                    <path d="M22.2970623,102.710546 C22.2970623,102.710546 30.1874672,55.8489779 53.9002607,48.7006677 C82.0274591,40.2227349 106.058172,47.1028325 113.631297,50.2705375 C125.640577,55.2947566 138.597856,101.454015 138.597856,101.454015 C138.597856,101.454015 144.918496,62.5174291 141.126496,50.5845115 C137.333856,38.6528651 127.852577,27.0339215 127.852577,27.0339215 C127.852577,27.0339215 124.692577,13.8457436 112.683297,10.7053683 C100.673378,7.56562863 92.4567385,0.971539696 92.4567385,0.971539696 L92.4567385,4.11127939 L71.5981798,0.343591757 L72.8628194,4.11127939 L47.5796211,6.30909718 L50.7402607,10.0774204 L33.6743417,15.1016395 L37.4663417,16.9854833 L20.4010623,27.0339215 L27.353702,27.0339215 L19.2426089,42.321403 L17.2404227,44.93298 L21.0324227,46.1888759 L15.3444227,61.8888456 L20.4010623,61.8888456 L16.7363579,77.6676265 L16.6084227,78.2180343 L19.7684227,77.5900863 L22.2970623,102.710546 Z" id="Fill-20" fill="#EDC866"></path>
                    <path d="M114.579361,50.5847022 L125.95664,31.7443573 L113.314721,46.1890666 C113.314721,46.1890666 67.8062437,34.8847325 50.107685,50.5847022 C50.107685,50.5847022 76.9708834,36.4546024 114.579361,50.5847022" id="Fill-22" fill="#C6A956"></path>
                    <path d="M112.050977,48.7009219 C112.050977,48.7009219 123.428257,55.9229588 131.960896,79.7875228 C131.960896,79.7875228 127.536257,58.4347505 113.314977,46.1891302 L112.050977,48.7009219 Z" id="Fill-24" fill="#C6A956"></path>
                    <path d="M98.46157,44.9327894 L80.447651,36.768195 L81.395651,39.5945963 L64.961732,35.5129347 L70.0183717,40.5365182 L58.6410923,39.2806223 L61.1690923,40.8504922 L47.579813,43.04831 L54.5324526,43.9908675 C54.5324526,43.9908675 44.4191733,45.8747113 41.5751733,49.3290605 C38.7311733,52.7834098 29.5658939,76.3333642 29.5658939,76.3333642 C29.5658939,76.3333642 43.7871733,50.8989304 50.739813,49.0150866 C57.6930923,47.1306072 98.46157,44.9327894 98.46157,44.9327894" id="Fill-26" fill="#C6A956"></path>
                    <polygon id="Fill-28" fill="#EFE08A" points="113.947169 20.7542514 105.41453 15.1014488 110.47053 20.1263035 103.956068 18.8729499 100.67389 18.2418241 100.98989 21.3821993 105.73053 22.3241213 93.4046105 23.2660432 101.30589 25.463861 98.4618899 29.8601321 107.94253 29.8601321"></polygon>
                    <path d="M127.536577,40.5365182 C126.904577,41.4784401 123.111937,45.5607373 124.376577,50.5849564 C125.640577,55.6091755 129.432577,64.0877438 129.432577,64.0877438 L128.168577,51.5268783 L131.329216,53.7253317 L127.536577,40.5365182 Z" id="Fill-30" fill="#EFE08A"></path>
                    <path d="M106.678338,38.0246629 C97.829698,37.7106889 81.7117789,31.1166 81.7117789,31.1166 L95.3010583,33.9423657 L94.0370583,30.802626 L101.937698,31.7445479 C101.937698,31.7445479 90.5604186,26.0923809 91.8244186,26.4063549 C93.0890583,26.7203289 105.730338,28.6048082 105.730338,28.6048082 L106.678338,38.0246629 Z" id="Fill-32" fill="#EFE08A"></path>
                    <path d="M36.8346615,47.7587458 C34.9386615,54.0388607 28.9333822,73.5077892 28.9333822,73.5077892 L31.1460219,61.8888456 C31.1460219,61.8888456 30.1980219,60.9475592 30.1980219,59.6910278 C30.1980219,58.4351319 36.8346615,47.7587458 36.8346615,47.7587458" id="Fill-34" fill="#EFE08A"></path>
                    <path d="M32.7261498,252.492655 C32.7261498,252.492655 35.2579879,275.970154 37.2249919,292.999746 L117.875996,292.999746 C119.807178,274.301134 123.744385,253.434577 123.744385,253.434577 L132.277024,269.449791 L157.876223,247.783045 L137.965664,198.797386 L119.951745,189.376895 C119.951745,189.376895 111.419105,217.637731 82.9759069,218.580288 C54.5327085,219.521574 39.3627895,189.376895 39.3627895,189.376895 L26.0895101,194.086505 L0.490311741,237.419997 L19.4528704,270.391078 L32.7261498,252.492655 Z" id="Fill-36" fill="#542F82"></path>
                    <path d="M56.5680939,293 L98.757932,293 C105.774539,287.700577 111.177244,279.795933 110.787041,271.647228 C110.154402,258.458414 105.098402,237.106278 98.7777619,235.850382 C92.4564826,234.59385 78.5512032,232.082059 78.5512032,232.082059 C78.5512032,232.082059 70.3345636,230.197579 59.5892842,238.990121 C48.8440049,247.782664 41.2587255,269.135436 49.4760049,284.207458 C51.4762721,287.875996 53.88977,290.758328 56.5680939,293" id="Fill-38" fill="#C42C76"></path>
                    <path d="M84.0386008,254.195805 C82.5679854,254.195805 81.3762688,253.011093 81.3762688,251.550542 C81.3762688,250.089356 82.5679854,248.904644 84.0386008,248.904644 C85.5092162,248.904644 86.7009328,250.089356 86.7009328,251.550542 C86.7009328,253.011093 85.5092162,254.195805 84.0386008,254.195805 M93.0906575,261.07336 C90.6944308,255.254037 88.8310543,249.698477 92.0262364,249.434078 C92.0262364,249.434078 87.7659935,242.820922 79.5122526,248.375846 C71.2591514,253.93077 69.12903,280.913464 58.4790623,279.590833 C58.4790623,279.590833 73.3803174,281.83187 83.2396453,279.062034 C92.8910785,276.350037 95.4868842,266.893954 93.0906575,261.07336" id="Fill-40" fill="#FFFFFF"></path>
                </g>
            </g>
        </g>
    </g>
</svg>
